X: 103
T: A Birthday
R: polka
M: 2/4
K: Gmajor
Aa fa/f/|ec AG/F/|EG Bd|cA AE|
Aa fa|ec AG/F/|EG Bc/B/|A2 A2|
a2 g/a/g/f/|ec AG/F/|EG Bd|cA AE|
Aa fa|ec AG/F/|EG Bc/B/|A2 A2||
|:B2 Bd/B/|cA Ac|Be d/c/B|c/B/A A2|
B2 Bd|cA Ac|1 ef/e/ dB|cA A2:|2 Be ^df|e2 c>d||
Aa fa/f/|ec AG/F/|EG Bd|cA AE|
Aa fa|ec AG/F/|EG Bc/B/|A2 A2|
a2 gf|ec A2|EG Bc/d/|cA A2|
Aa fa/f/|ec AG/F/|EG Bc/B/|A2 A2||
|:B2 Bd|cA A2|Be dB|cA A2|
B2 B/c/d|cA Ac|1 ee dB|A2 A2:|2 Be ^d/e/f|e2- e||
Gg eg/e/|dB GF/E/|DF Ac|BG GD|
Gg eg|dB GF/E/|DF AB/A/|G2 G2|
g2 f/g/f/e/|dB GF/E/|DF Ac|BG GD|
Gg eg|dB GF/E/|DF AB/A/|G2 G2||
|:A2 Ac/A/|BG GB|Ad c/B/A|B/A/G G2|
A2 Ac|BG GB|1 de/d/ cA|BG G2:|2 Ad ^ce|d2 B>c||
dg eg|dB GF/E/|DF Ac|BG GD|
Gg eg|dB GF/E/|DF AB/A/|G2 G2|
g2 fe|dB G2|DF A/B/c|BG G2|
Gg eg/e/|dB GF/E/|DF AB/A/|G2 G2||
|:A2 Ac|BG G2|Ad cA|BG G2|
A2 A/B/c|BG GB|1 dd cA|G2 G2:|2 Ad ^c/d/e|d2- d||

